resources/icons/16px/detection.svg

<svg width="16" height="16" viewBox="0 0 16 16" fill="none" xmlns="http://www.w3.org/2000/svg">
<path d="M1 0C0.447715 0 0 0.447715 0 1V5C0 5.55228 0.447715 6 1 6C1.55228 6 2 5.55228 2 5V2H5C5.55228 2 6 1.55228 6 1C6 0.447715 5.55228 0 5 0H1Z" fill="black"/>
<path d="M0 15C0 15.5523 0.447715 16 1 16H5C5.55228 16 6 15.5523 6 15C6 14.4477 5.55228 14 5 14H2V11C2 10.4477 1.55228 10 1 10C0.447715 10 0 10.4477 0 11V15Z" fill="black"/>
<path d="M15 16C15.5523 16 16 15.5523 16 15V11C16 10.4477 15.5523 10 15 10C14.4477 10 14 10.4477 14 11V14H11C10.4477 14 10 14.4477 10 15C10 15.5523 10.4477 16 11 16H15Z" fill="black"/>
<path d="M16 1C16 0.447715 15.5523 0 15 0H11C10.4477 0 10 0.447715 10 1C10 1.55228 10.4477 2 11 2H14V5C14 5.55228 14.4477 6 15 6C15.5523 6 16 5.55228 16 5V1Z" fill="black"/>
<path fill-rule="evenodd" clip-rule="evenodd" d="M4 5C4 4.44772 4.44772 4 5 4H11C11.5523 4 12 4.44772 12 5V11C12 11.5523 11.5523 12 11 12H5C4.44772 12 4 11.5523 4 11V5ZM6 10V6H10V10H6Z" fill="black"/>
</svg>

<svg xmlns="http://www.w3.org/2000/svg" viewBox="0 0 16 16">
  <path d="M1 0a1 1 0 0 0-1 1v4a1 1 0 0 0 2 0V2h3a1 1 0 0 0 0-2zM0 15a1 1 0 0 0 1 1h4a1 1 0 1 0 0-2H2v-3a1 1 0 1 0-2 0zM15 16a1 1 0 0 0 1-1v-4a1 1 0 1 0-2 0v3h-3a1 1 0 1 0 0 2zM16 1a1 1 0 0 0-1-1h-4a1 1 0 1 0 0 2h3v3a1 1 0 1 0 2 0zM4 5a1 1 0 0 1 1-1h6a1 1 0 0 1 1 1v6a1 1 0 0 1-1 1H5a1 1 0 0 1-1-1zm2 5V6h4v4z"/>
</svg>
